packages/core/src/svgs/tokens/branded/ACQ.svg

<svg width="24" height="24" viewBox="0 0 24 24" fill="none" xmlns="http://www.w3.org/2000/svg">
<path fill-rule="evenodd" clip-rule="evenodd" d="M12 20.8235C14.3401 20.8235 16.5845 19.8938 18.2392 18.2392C19.8939 16.5845 20.8236 14.3401 20.8236 12C20.8236 9.65983 19.8939 7.41554 18.2392 5.76081C16.5845 4.10608 14.3401 3.17647 12 3.17647C9.65982 3.17647 7.41555 4.10608 5.76082 5.76081C4.10608 7.41554 3.17647 9.65983 3.17647 12C3.17647 14.3401 4.10608 16.5845 5.76082 18.2392C7.41555 19.8938 9.65982 20.8235 12 20.8235ZM12 22C14.6522 22 17.1957 20.9464 19.0711 19.071C20.9464 17.1957 22 14.6522 22 12C22 9.34785 20.9464 6.80429 19.0711 4.92892C17.1957 3.05357 14.6522 2 12 2C9.34784 2 6.80429 3.05357 4.92892 4.92892C3.05357 6.80429 2 9.34785 2 12C2 14.6522 3.05357 17.1957 4.92892 19.071C6.80429 20.9464 9.34784 22 12 22Z" fill="url(#paint0_linear_364_1798)"/>
<path d="M13.7647 12.2941V13.1763H6.11768L10.5295 6.11755L12.8823 9.94112H11.7059L10.5295 7.88225L7.88237 12.2941H13.7647Z" fill="#44B4AC"/>
<path d="M10.8232 11.7058V10.8234H18.4704L14.0586 17.8822L11.7057 14.0587H12.8821L14.0586 16.1176L16.7057 11.7058H10.8232Z" fill="#44B4AC"/>
<defs>
<linearGradient id="paint0_linear_364_1798" x1="16.4118" y1="3.17647" x2="7.58823" y2="20.5295" gradientUnits="userSpaceOnUse">
<stop stop-color="#837DBA"/>
<stop offset="0.5" stop-color="#0F67A3"/>
<stop offset="1" stop-color="#56BCAF"/>
</linearGradient>
</defs>
</svg>

<svg xmlns="http://www.w3.org/2000/svg" width="24" height="24" fill="none" viewBox="0 0 24 24">
    <path fill="url(#ACQ__a)" fill-rule="evenodd" d="M12 20.824a8.824 8.824 0 1 0 0-17.649 8.824 8.824 0 0 0 0 17.649M12 22a10 10 0 1 0 0-20 10 10 0 0 0 0 20" clip-rule="evenodd"/>
    <path fill="#44B4AC" d="M13.765 12.294v.882H6.118l4.412-7.058 2.352 3.823h-1.176L10.53 7.882l-2.648 4.412z"/>
    <path fill="#44B4AC" d="M10.823 11.706v-.883h7.647l-4.411 7.06-2.353-3.824h1.176l1.177 2.059 2.647-4.412z"/>
    <defs>
        <linearGradient id="ACQ__a" x1="16.412" x2="7.588" y1="3.176" y2="20.529" gradientUnits="userSpaceOnUse">
            <stop stop-color="#837DBA"/>
            <stop offset=".5" stop-color="#0F67A3"/>
            <stop offset="1" stop-color="#56BCAF"/>
        </linearGradient>
    </defs>
</svg>
